!!!!SEGMENT: pl-sa--559-a-ix-39--001_turowicz--walc.krn
!!!cenid: 18xx:338
!!!COM: Turowicz, Ksawery
!!!COM-rismID: pe41021598
!!!CDT:
!!!CNT: Polish
!!!OTL: Walc
!!!PDT:
!!!AGN: Secular; Waltz
!!!SMS-siglum: PL-SA
!!!SMS-shelfmark: 559/A IX 39
!!!SMS-shelfwork: 001 W
!!!SMS-variant:
!!!SMS-altvar:
!!!NIFC-rismSourceID: 1001065423
!!!NIFC-islandoraID:
!!!URL-pdf-islandora:
!!!URL-scan: https://bc.bdsandomierz.pl/dlibra/publication/1315/edition/1283/content @EN{Scan in the Sandomierz Diocese Digital Library} @PL{Skany w portalu Cyfrowa Biblioteka Diecezjalna w Sandomierzu}
!!!ONB-nifc:
!!!AIN: 1 piano
!!!key: D
**kern	**kern
*part1	*part1
*staff2	*staff1
*I"[Pianoforte]	*I"[Pianoforte]
*Ipiano	*Ipiano
*ICklav	*ICklav
*clefF4	*clefG2
*k[f#c#]	*k[f#c#]
*D:	*D:
*M3/8	*M3/8
!	!LO:TX:a:t=Valce\npar\nMr.\nTurowicz
8ryy	16d/LL
.	16d/JJ
=1	=1
4.ryy	8d/L
.	8A/J
.	16f#/LL
.	16f#/JJ
=2	=2
4.ryy	(16f#/KL
!	!LO:N:vis=8
.	8.d/J)
.	16a\LL
.	16a\JJ
=3	=3
4.ryy	8a/L
.	8f#/J
.	16dd\LL
.	16dd\JJ
=4	=4
4.ryy	8dd\L
.	8a\J
.	16ff#\LL
.	16ff#\JJ
=5	=5
4.ryy	8ff#\L
.	8dd\J
.	16aa\LL
.	16aa\JJ
=6	=6
4.ryy	8bb\L
.	8fff#\
.	8ddd\J
=7	=7
4.ryy	16ccc#\LL
.	16ggg\
.	16eee\
.	16ggg\
.	16ccc#\
.	16eee\JJ
=	=
4ryy	4ddd\
=8||	=8||
8ryy	16ff#\LL
.	16aa\JJ
=9	=9
4.ryy	16aa\LL
.	16gg\
.	16gg\
.	16ee\
.	16ee\
.	16eee\JJ
=10	=10
4.ryy	4eee\
.	16aa\LL
.	16ccc#\JJ
=11	=11
4.ryy	16ddd\LL
.	16fff#\
.	16fff#\
!	!LO:TX:a:t=P:problem=16\right
.	16ddd\
.	16ddd\
.	16aa\JJ
=12	=12
!!linebreak:original
4.ryy	16aa\LL
.	16ff#\
.	16ff#\
.	16dd\
.	16bb\
.	16aa\JJ
=13	=13
4.ryy	16aa\LL
.	16gg\
.	16gg\
.	16ff#\
.	16ee\
.	16eee\JJ
=14	=14
4.ryy	4eee\
.	16aa\LL
.	16ccc#\JJ
=15	=15
4.ryy	16ddd\LL
.	16fff#\
.	16aa\
.	16fff#\
.	16eee\
.	16ccc#\JJ
=	=
4ryy	4ddd\
!	!LO:TX:a:t=[segno]
=16||	=16||
8ryy	16ff#\LL
.	16gg\JJ
=17	=17
4.ryy	(16ff#\LL
.	16ee\)
.	16ee\
.	16ee\J
.	8ee\J
=18	=18
4.ryy	8ee\L
.	16a\L
.	16a\J
.	8ee\J
=19	=19
4.ryy	(16ee\LL
.	16dd\)
.	16dd\
.	16dd\J
.	8dd\J
=20	=20
4.ryy	8dd\L
.	16f#\L
.	16a\J
.	8dd\J
=21	=21
4.ryy	(16dd\LL
.	16cc#\)
.	16cc#\
.	16e\J
.	8g\J
=22	=22
4.ryy	(16dd\LL
.	16cc#\)
.	16cc#\
.	16e\J
.	8bb\J
!!linebreak:original
=23	=23
4.ryy	16bb\LL
.	16aa\
.	8qqbb/
.	16aa\
.	16gg#X\J
.	8aa\J
=24	=24
4.ryy	8ff#\L
.	8a\J
.	16ff#\LL
.	16gg\JJ
=25	=25
4.ryy	16ff#\LL
.	16ee\
.	8qff#/
.	16ee\
.	16dd#X\J
.	8ee\J
=26	=26
4.ryy	8ee\L
.	16g\L
.	16a\J
.	8ff#\J
=27	=27
4.ryy	16ee\LL
.	16dd\
.	8qee/
.	16dd\
.	16cc#\J
.	8dd\J
=28	=28
4.ryy	8dd\L
.	16f#\L
.	16a\J
.	8ee\J
=29	=29
4.ryy	(16dd\LL
.	16cc#\)
.	16cc#\
.	16e\J
.	8g\J
=30	=30
4.ryy	16dd\LL
.	16cc#\
.	16cc#\
.	16bb\J
.	8aa\J
=31	=31
4.ryy	16dd\LL
.	16ff#\
.	16dd\
.	16a\
.	16f#\
.	16a\JJ
=	=
4ryy	4d/
!	!LO:TX:a:i:t=Fine
=32||	=32||
8ryy	16ff#\LL
.	16ee\JJ
=33	=33
4.ryy	4ee\
.	(16ff#\LL
.	16ee\JJ)
=34	=34
!!linebreak:original
4.ryy	(16ff#\LL
.	16ee\JJ)
.	(16dd#X\LL
.	16ee\JJ)
.	16ff#\LL
.	16ee\JJ
=35	=35
4.ryy	(16ee\LL
.	16aa\)
.	(16aa\
.	16ee\)
.	(16ee\
.	16cc#\JJ)
=36	=36
4.ryy	(16cc#\LL
.	16ee\)
.	(16ee\
.	16cc#\)
.	(16cc#\
.	16a\JJ)
=37	=37
4.ryy	(16a#X\LL
.	16b\
.	16cc#\)
.	16b\J
.	8dd'\J
=38	=38
4.ryy	4fn^/
.	8e/
=39	=39
.	8qb/
4.ryy	16a\LL
.	16g#X\JJ
.	8a\L
.	8cc#\J
=40	=40
4.ryy	4ff#^\
.	8ee\
=41	=41
4.ryy	4ee\
.	(16ff#\LL
.	16ee\JJ)
=42	=42
4.ryy	16ff#\LL
.	16ee\
.	16dd#X\
.	16ee\
.	16ff#\
.	16ee\JJ
=43	=43
4.ryy	16ee\LL
.	16aa\
.	16aa\
.	16ee\
.	16ee\
.	16cc#\JJ
=44	=44
4.ryy	16cc#\LL
.	16ee\
.	16ee\
.	16cc#\
.	16cc#\
.	16a\JJ
=45	=45
!!pagebreak:original
4.ryy	(16a#X\LL
.	16b\
.	16cc#\
.	16b\J)
.	8dd'\J
=46	=46
4.ryy	(16d#X/LL
.	16e/
.	16f#/
.	16e/J)
.	8g#X/J
=47	=47
4.ryy	4a\
.	8cc#\
=48	=48
4ryy	4a\
!	!LO:TX:t=P:problem=po kresce taktowej znak ff# i metrum 3/8
==	==
*-	*-
!!!system-decoration: (s1,s2)
!!!ENC: Katarzyna Serwa
!!!END: 2022-01-05
!!!ENC: Andrzej Borzym
!!!END: 2020-06-08
!!!YEC: Copyright 2022 Narodowy Instytut Fryderyka Chopina (https://polishscores.org)
!!!YEM: Licence CC BY 4.0 (https://creativecommons.org/licenses/by/4.0)
